X:0161
T:Borlum's Reel.
M:C
L:1/8
Q:1/2=104
I: :: ::
Z:Jack Campin * www.campin.me.uk * 2009
K:E Minor
GBdB A/A/A e2|GB (de/f/) gdBG| ceBg         A/A/A e2|(d/c/B/A/) GB d2e2:|
dBgB A/A/A e2|dBgB       dega|(g/f/e/f/) gB A/A/A e2| de/f/     gB d2e2:|
<end>
<start>
